Numix-Light/16/status/indicator-keyboard-Bs-5.svg

<?xml version="1.0" encoding="UTF-8" standalone="no"?>
<svg
   xmlns:dc="http://purl.org/dc/elements/1.1/"
   xmlns:cc="http://creativecommons.org/ns#"
   xmlns:rdf="http://www.w3.org/1999/02/22-rdf-syntax-ns#"
   xmlns:svg="http://www.w3.org/2000/svg"
   xmlns="http://www.w3.org/2000/svg"
   xmlns:sodipodi="http://sodipodi.sourceforge.net/DTD/sodipodi-0.dtd"
   xmlns:inkscape="http://www.inkscape.org/namespaces/inkscape"
   viewBox="0 0 16 16"
   id="svg2"
   version="1.1"
   inkscape:version="0.91 r13725"
   sodipodi:docname="indicator-keyboard-Bs-5.svg">
  <metadata
     id="metadata14">
    <rdf:RDF>
      <cc:Work
         rdf:about="">
        <dc:format>image/svg+xml</dc:format>
        <dc:type
           rdf:resource="http://purl.org/dc/dcmitype/StillImage" />
      </cc:Work>
    </rdf:RDF>
  </metadata>
  <defs
     id="defs12" />
  <sodipodi:namedview
     pagecolor="#ffffff"
     bordercolor="#666666"
     borderopacity="1"
     objecttolerance="10"
     gridtolerance="10"
     guidetolerance="10"
     inkscape:pageopacity="0"
     inkscape:pageshadow="2"
     inkscape:window-width="640"
     inkscape:window-height="480"
     id="namedview10"
     showgrid="false"
     inkscape:zoom="14.75"
     inkscape:cx="8"
     inkscape:cy="8"
     inkscape:window-x="65"
     inkscape:window-y="24"
     inkscape:window-maximized="0"
     inkscape:current-layer="svg2" />
  <path
     style="fill:#353535;fill-opacity:1"
     d="M 1.5996094 0 C 0.71320937 2.9605947e-16 0 0.71320937 0 1.5996094 L 0 14.400391 C 2.9605947e-16 15.286791 0.71320937 16 1.5996094 16 L 14.400391 16 C 15.286791 16 16 15.286791 16 14.400391 L 16 1.5996094 C 16 0.71320937 15.286791 0 14.400391 0 L 1.5996094 0 z M 3.7851562 4.8046875 C 4.1211562 4.8046875 4.4402344 4.8327188 4.7402344 4.8867188 C 5.0462344 4.9407187 5.3130156 5.03025 5.5410156 5.15625 C 5.7690156 5.28225 5.9480781 5.4501562 6.0800781 5.6601562 C 6.2180781 5.8641563 6.2871094 6.1197813 6.2871094 6.4257812 C 6.2871094 6.7617812 6.2013438 7.0490625 6.0273438 7.2890625 C 5.8593437 7.5230625 5.6297969 7.6853906 5.3417969 7.7753906 C 5.5217969 7.8173906 5.6878906 7.8770781 5.8378906 7.9550781 C 5.9878906 8.0330781 6.120375 8.1357188 6.234375 8.2617188 C 6.348375 8.3817188 6.4341406 8.5309375 6.4941406 8.7109375 C 6.5601406 8.8849375 6.59375 9.0957969 6.59375 9.3417969 C 6.59375 9.9297971 6.358625 10.379406 5.890625 10.691406 C 5.422625 10.997406 4.7006562 11.150391 3.7226562 11.150391 C 3.6206562 11.150391 3.5012813 11.144813 3.3632812 11.132812 C 3.2312812 11.126812 3.0932188 11.113703 2.9492188 11.095703 C 2.8112188 11.083703 2.6787344 11.068781 2.5527344 11.050781 C 2.4267344 11.026781 2.3185156 11.002516 2.2285156 10.978516 L 2.2285156 4.9765625 C 2.3365156 4.9465625 2.4558906 4.9222969 2.5878906 4.9042969 C 2.7198906 4.8802969 2.8561406 4.8616094 2.9941406 4.8496094 C 3.1381406 4.8316094 3.2762031 4.8204531 3.4082031 4.8144531 C 3.5462031 4.8084531 3.6711562 4.8046875 3.7851562 4.8046875 z M 3.7851562 5.3261719 C 3.5631562 5.3261719 3.37475 5.3337031 3.21875 5.3457031 C 3.06875 5.3577031 2.9418437 5.372625 2.8398438 5.390625 L 2.8398438 7.5859375 L 4.0292969 7.5859375 C 4.2512969 7.5859375 4.4602031 7.5710156 4.6582031 7.5410156 C 4.8562031 7.5050156 5.027875 7.4453281 5.171875 7.3613281 C 5.321875 7.2713281 5.4394375 7.1537656 5.5234375 7.0097656 C 5.6074375 6.8597656 5.6484375 6.6713594 5.6484375 6.4433594 C 5.6484375 6.2393594 5.6036719 6.0676875 5.5136719 5.9296875 C 5.4236719 5.7856875 5.2949531 5.668125 5.1269531 5.578125 C 4.9649531 5.488125 4.7690156 5.426625 4.5410156 5.390625 C 4.3130156 5.348625 4.0611563 5.3261719 3.7851562 5.3261719 z M 9.1308594 6.3359375 C 9.4488594 6.3359375 9.7100625 6.3620156 9.9140625 6.4160156 C 10.124063 6.4700156 10.269516 6.5185469 10.353516 6.5605469 L 10.21875 7.0820312 C 10.14675 7.0460313 10.02361 6.9975 9.8496094 6.9375 C 9.6816094 6.8775 9.4335156 6.8476562 9.1035156 6.8476562 C 8.9715156 6.8476562 8.8446094 6.8625781 8.7246094 6.8925781 C 8.6106094 6.9165781 8.5099219 6.9595312 8.4199219 7.0195312 C 8.3299219 7.0735312 8.257125 7.144375 8.203125 7.234375 C 8.149125 7.318375 8.1230469 7.4247813 8.1230469 7.5507812 C 8.1230469 7.6767812 8.1453594 7.7830469 8.1933594 7.8730469 C 8.2413594 7.9630469 8.3103906 8.0451875 8.4003906 8.1171875 C 8.4963906 8.1831875 8.6121406 8.2466406 8.7441406 8.3066406 C 8.8821406 8.3666406 9.0369375 8.4319062 9.2109375 8.5039062 C 9.3909375 8.5759063 9.5626094 8.6505156 9.7246094 8.7285156 C 9.8926094 8.8005156 10.040015 8.8900469 10.166016 8.9980469 C 10.292016 9.1000469 10.392703 9.2269531 10.470703 9.3769531 C 10.548703 9.5209531 10.587891 9.7037813 10.587891 9.9257812 C 10.587891 10.345781 10.429328 10.664859 10.111328 10.880859 C 9.799328 11.096859 9.3702187 11.203125 8.8242188 11.203125 C 8.4162187 11.203125 8.1046719 11.167703 7.8886719 11.095703 C 7.6726719 11.029703 7.5290312 10.979359 7.4570312 10.943359 L 7.609375 10.412109 C 7.627375 10.424109 7.6665625 10.444609 7.7265625 10.474609 C 7.7865625 10.498609 7.86675 10.528453 7.96875 10.564453 C 8.07075 10.594453 8.1920781 10.622484 8.3300781 10.646484 C 8.4740781 10.670484 8.6382187 10.681641 8.8242188 10.681641 C 9.1602188 10.681641 9.4363438 10.627531 9.6523438 10.519531 C 9.8743437 10.405531 9.984375 10.217125 9.984375 9.953125 C 9.984375 9.827125 9.963875 9.7189063 9.921875 9.6289062 C 9.885875 9.5389063 9.8224219 9.4587187 9.7324219 9.3867188 C 9.6424219 9.3147187 9.5230469 9.2456875 9.3730469 9.1796875 C 9.2290469 9.1136875 9.0499844 9.0353125 8.8339844 8.9453125 C 8.6599844 8.8733125 8.4938906 8.8005156 8.3378906 8.7285156 C 8.1818906 8.6505156 8.0438281 8.56475 7.9238281 8.46875 C 7.8038281 8.36675 7.7087188 8.2454219 7.6367188 8.1074219 C 7.5647188 7.9694219 7.5273437 7.8015156 7.5273438 7.6035156 C 7.5273438 7.2255156 7.6691719 6.9195469 7.9511719 6.6855469 C 8.2391719 6.4515469 8.6328594 6.3359375 9.1308594 6.3359375 z M 2.8398438 8.1074219 L 2.8398438 10.564453 C 2.9298438 10.576453 3.0660937 10.591375 3.2460938 10.609375 C 3.4260938 10.621375 3.6089219 10.628906 3.7949219 10.628906 C 4.0709219 10.628906 4.3377031 10.610219 4.5957031 10.574219 C 4.8597031 10.538219 5.0910625 10.472953 5.2890625 10.376953 C 5.4870625 10.280953 5.645625 10.148469 5.765625 9.9804688 C 5.885625 9.8124687 5.9453125 9.5960312 5.9453125 9.3320312 C 5.9453125 9.0920313 5.9043125 8.8942812 5.8203125 8.7382812 C 5.7363125 8.5762813 5.6149844 8.449375 5.4589844 8.359375 C 5.3029844 8.263375 5.1108125 8.1981094 4.8828125 8.1621094 C 4.6608125 8.1261094 4.4127187 8.1074219 4.1367188 8.1074219 L 2.8398438 8.1074219 z M 11.806641 8.8417969 L 13.630859 8.8417969 L 13.630859 9.1757812 L 12.138672 9.1757812 C 12.134805 9.2498812 12.128927 9.3458906 12.121094 9.4628906 C 12.113294 9.5798906 12.105456 9.6994188 12.097656 9.8242188 C 12.089856 9.9451188 12.080059 10.062681 12.068359 10.175781 C 12.056659 10.288881 12.046863 10.379012 12.039062 10.445312 C 12.339363 10.453112 12.599959 10.490341 12.818359 10.556641 C 13.036759 10.622941 13.215069 10.711119 13.355469 10.824219 C 13.495869 10.937319 13.599716 11.074475 13.666016 11.234375 C 13.736216 11.394275 13.771484 11.572578 13.771484 11.767578 C 13.771484 11.939178 13.742094 12.097894 13.683594 12.246094 C 13.628994 12.394294 13.542781 12.523613 13.425781 12.632812 C 13.308781 12.742012 13.161822 12.828225 12.982422 12.890625 C 12.803022 12.953025 12.58945 12.984375 12.34375 12.984375 C 12.21895 12.984375 12.101388 12.974578 11.992188 12.955078 C 11.886887 12.939478 11.792831 12.919884 11.707031 12.896484 C 11.625131 12.873084 11.554594 12.849572 11.496094 12.826172 C 11.437594 12.802772 11.394487 12.783178 11.367188 12.767578 L 11.466797 12.427734 C 11.490197 12.443334 11.529384 12.462928 11.583984 12.486328 C 11.642484 12.509728 11.709103 12.533241 11.783203 12.556641 C 11.861203 12.576141 11.945462 12.593775 12.039062 12.609375 C 12.136562 12.624975 12.23845 12.632812 12.34375 12.632812 C 12.53875 12.632812 12.701378 12.611259 12.830078 12.568359 C 12.962678 12.521559 13.066531 12.458859 13.144531 12.380859 C 13.222531 12.302859 13.277394 12.212728 13.308594 12.111328 C 13.343694 12.006028 13.361328 11.894337 13.361328 11.773438 C 13.361328 11.617437 13.335856 11.476362 13.285156 11.351562 C 13.234456 11.226762 13.146278 11.120956 13.017578 11.035156 C 12.888878 10.949356 12.714494 10.884697 12.496094 10.841797 C 12.277694 10.794997 12.001416 10.771484 11.666016 10.771484 C 11.689416 10.572584 11.709009 10.392316 11.724609 10.228516 C 11.740209 10.060816 11.753925 9.9001469 11.765625 9.7480469 C 11.777325 9.5920469 11.785163 9.4431281 11.789062 9.2988281 C 11.796862 9.1506281 11.802741 8.9977969 11.806641 8.8417969 z "
     id="path4" />
</svg>

<svg xmlns="http://www.w3.org/2000/svg" viewBox="0 0 16 16">
 <path d="m 1.6 0 c -0.886 0 -1.6 0.713 -1.6 1.6 l 0 12.801 c 0 0.886 0.713 1.6 1.6 1.6 l 12.801 0 c 0.886 0 1.6 -0.713 1.6 -1.6 l 0 -12.801 c 0 -0.886 -0.713 -1.6 -1.6 -1.6 l -12.801 0 z m 2.186 4.805 c 0.336 0 0.655 0.028 0.955 0.082 c 0.306 0.054 0.573 0.144 0.801 0.27 c 0.228 0.126 0.407 0.294 0.539 0.504 c 0.138 0.204 0.207 0.46 0.207 0.766 c 0 0.336 -0.086 0.623 -0.26 0.863 c -0.168 0.234 -0.398 0.396 -0.686 0.486 c 0.18 0.042 0.346 0.102 0.496 0.18 c 0.15 0.078 0.282 0.181 0.396 0.307 c 0.114 0.12 0.2 0.269 0.26 0.449 c 0.066 0.174 0.1 0.385 0.1 0.631 c 0 0.588 -0.235 1.038 -0.703 1.35 c -0.468 0.306 -1.19 0.459 -2.168 0.459 c -0.102 0 -0.221 -0.006 -0.359 -0.018 c -0.132 -0.006 -0.27 -0.019 -0.414 -0.037 c -0.138 -0.012 -0.27 -0.027 -0.396 -0.045 c -0.126 -0.024 -0.234 -0.048 -0.324 -0.072 l 0 -6 c 0.108 -0.03 0.227 -0.054 0.359 -0.072 c 0.132 -0.024 0.268 -0.043 0.406 -0.055 c 0.144 -0.018 0.282 -0.029 0.414 -0.035 c 0.138 -0.006 0.263 -0.01 0.377 -0.01 z m 0 0.521 c -0.222 0 -0.41 0.008 -0.566 0.02 c -0.15 0.012 -0.277 0.027 -0.379 0.045 l 0 2.195 l 1.189 0 c 0.222 0 0.431 -0.015 0.629 -0.045 c 0.198 -0.036 0.37 -0.096 0.514 -0.18 c 0.15 -0.09 0.268 -0.208 0.352 -0.352 c 0.084 -0.15 0.125 -0.338 0.125 -0.566 c 0 -0.204 -0.045 -0.376 -0.135 -0.514 c -0.09 -0.144 -0.219 -0.262 -0.387 -0.352 c -0.162 -0.09 -0.358 -0.152 -0.586 -0.188 c -0.228 -0.042 -0.48 -0.064 -0.756 -0.064 z m 5.346 1.01 c 0.318 0 0.579 0.026 0.783 0.08 c 0.21 0.054 0.355 0.103 0.439 0.145 l -0.135 0.521 c -0.072 -0.036 -0.195 -0.085 -0.369 -0.145 c -0.168 -0.06 -0.416 -0.09 -0.746 -0.09 c -0.132 0 -0.259 0.015 -0.379 0.045 c -0.114 0.024 -0.215 0.067 -0.305 0.127 c -0.09 0.054 -0.163 0.125 -0.217 0.215 c -0.054 0.084 -0.08 0.19 -0.08 0.316 c 0 0.126 0.022 0.232 0.07 0.322 c 0.048 0.09 0.117 0.172 0.207 0.244 c 0.096 0.066 0.212 0.129 0.344 0.189 c 0.138 0.06 0.293 0.125 0.467 0.197 c 0.18 0.072 0.352 0.147 0.514 0.225 c 0.168 0.072 0.315 0.162 0.441 0.27 c 0.126 0.102 0.227 0.229 0.305 0.379 c 0.078 0.144 0.117 0.327 0.117 0.549 c 0 0.42 -0.159 0.739 -0.477 0.955 c -0.312 0.216 -0.741 0.322 -1.287 0.322 c -0.408 0 -0.72 -0.035 -0.936 -0.107 c -0.216 -0.066 -0.36 -0.116 -0.432 -0.152 l 0.152 -0.531 c 0.018 0.012 0.057 0.033 0.117 0.063 c 0.06 0.024 0.14 0.054 0.242 0.09 c 0.102 0.03 0.223 0.058 0.361 0.082 c 0.144 0.024 0.308 0.035 0.494 0.035 c 0.336 0 0.612 -0.054 0.828 -0.162 c 0.222 -0.114 0.332 -0.302 0.332 -0.566 c 0 -0.126 -0.021 -0.234 -0.063 -0.324 c -0.036 -0.09 -0.099 -0.17 -0.189 -0.242 c -0.09 -0.072 -0.209 -0.141 -0.359 -0.207 c -0.144 -0.066 -0.323 -0.144 -0.539 -0.234 c -0.174 -0.072 -0.34 -0.145 -0.496 -0.217 c -0.156 -0.078 -0.294 -0.164 -0.414 -0.26 c -0.12 -0.102 -0.215 -0.223 -0.287 -0.361 c -0.072 -0.138 -0.109 -0.306 -0.109 -0.504 c 0 -0.378 0.142 -0.684 0.424 -0.918 c 0.288 -0.234 0.682 -0.35 1.18 -0.35 z m -6.291 1.771 l 0 2.457 c 0.09 0.012 0.226 0.027 0.406 0.045 c 0.18 0.012 0.363 0.02 0.549 0.02 c 0.276 0 0.543 -0.019 0.801 -0.055 c 0.264 -0.036 0.495 -0.101 0.693 -0.197 c 0.198 -0.096 0.357 -0.228 0.477 -0.396 c 0.12 -0.168 0.18 -0.384 0.18 -0.648 c 0 -0.24 -0.041 -0.438 -0.125 -0.594 c -0.084 -0.162 -0.205 -0.289 -0.361 -0.379 c -0.156 -0.096 -0.348 -0.161 -0.576 -0.197 c -0.222 -0.036 -0.47 -0.055 -0.746 -0.055 l -1.297 0 z m 8.967 0.734 l 1.824 0 l 0 0.334 l -1.492 0 c -0.004 0.074 -0.01 0.17 -0.018 0.287 c -0.008 0.117 -0.016 0.237 -0.023 0.361 c -0.008 0.121 -0.018 0.238 -0.029 0.352 c -0.012 0.113 -0.021 0.203 -0.029 0.27 c 0.3 0.008 0.561 0.045 0.779 0.111 c 0.218 0.066 0.397 0.154 0.537 0.268 c 0.14 0.113 0.244 0.25 0.311 0.41 c 0.07 0.16 0.105 0.338 0.105 0.533 c 0 0.172 -0.029 0.33 -0.088 0.479 c -0.055 0.148 -0.141 0.278 -0.258 0.387 c -0.117 0.109 -0.264 0.195 -0.443 0.258 c -0.179 0.062 -0.393 0.094 -0.639 0.094 c -0.125 0 -0.242 -0.01 -0.352 -0.029 c -0.105 -0.016 -0.199 -0.035 -0.285 -0.059 c -0.082 -0.023 -0.152 -0.047 -0.211 -0.07 c -0.058 -0.023 -0.102 -0.043 -0.129 -0.059 l 0.1 -0.34 c 0.023 0.016 0.063 0.035 0.117 0.059 c 0.059 0.023 0.125 0.047 0.199 0.07 c 0.078 0.019 0.162 0.037 0.256 0.053 c 0.098 0.016 0.199 0.023 0.305 0.023 c 0.195 0 0.358 -0.022 0.486 -0.064 c 0.133 -0.047 0.236 -0.109 0.314 -0.188 c 0.078 -0.078 0.133 -0.168 0.164 -0.27 c 0.035 -0.105 0.053 -0.217 0.053 -0.338 c 0 -0.156 -0.025 -0.297 -0.076 -0.422 c -0.051 -0.125 -0.139 -0.231 -0.268 -0.316 c -0.129 -0.086 -0.303 -0.15 -0.521 -0.193 c -0.218 -0.047 -0.495 -0.07 -0.83 -0.07 c 0.023 -0.199 0.043 -0.379 0.059 -0.543 c 0.016 -0.168 0.029 -0.328 0.041 -0.48 c 0.012 -0.156 0.02 -0.305 0.023 -0.449 c 0.008 -0.148 0.014 -0.301 0.018 -0.457 z" style="fill:#353535;fill-opacity:1"/>
</svg>
